src/assets/icons/person_decor_bottom_right.svg

<svg width="80" height="80" viewBox="0 0 80 80" fill="none" xmlns="http://www.w3.org/2000/svg">
<path d="M43 68.4559L53.759 69.0106L54.3137 79.7696L59.115 74.9683L58.5563 64.2132L47.8013 63.6546L43 68.4559Z" fill="#B87773"/>
<path d="M62.9686 48.4872L62.7989 59.9706L74.2823 59.8009L79.7695 54.3137L68.2861 54.4834L68.4558 43L62.9686 48.4872Z" fill="white"/>
</svg>

<svg xmlns="http://www.w3.org/2000/svg" width="80" height="80" fill="none">
  <path fill="#b87773" d="m43 68.456 10.759.555.555 10.759 4.801-4.802-.559-10.755-10.755-.558z"/>
  <path fill="#fff" d="m62.969 48.487-.17 11.484 11.483-.17 5.487-5.487-11.483.17.17-11.484z"/>
</svg>
